SVG_Azure_All/Storage Account Object Replication.svg

<?xml version="1.0" encoding="UTF-8" standalone="no"?>
<!-- Generated by Microsoft Visio, SVG Export Storage Account Object Replication.svg Page-1 -->

<svg
   xmlns:dc="http://purl.org/dc/elements/1.1/"
   xmlns:cc="http://creativecommons.org/ns#"
   xmlns:rdf="http://www.w3.org/1999/02/22-rdf-syntax-ns#"
   xmlns:svg="http://www.w3.org/2000/svg"
   xmlns="http://www.w3.org/2000/svg"
   xmlns:sodipodi="http://sodipodi.sourceforge.net/DTD/sodipodi-0.dtd"
   xmlns:inkscape="http://www.inkscape.org/namespaces/inkscape"
   width="0.74805981in"
   height="0.7873832in"
   viewBox="0 0 53.86006 56.691901"
   xml:space="preserve"
   class="st8"
   version="1.1"
   id="svg67"
   sodipodi:docname="Storage Account Object Replication.svg"
   style="font-size:12px;overflow:visible;color-interpolation-filters:sRGB;fill:none;fill-rule:evenodd;stroke-linecap:square;stroke-miterlimit:3"
   inkscape:version="0.92.5 (2060ec1f9f, 2020-04-08)"><metadata
   id="metadata71"><rdf:RDF><cc:Work
       rdf:about=""><dc:format>image/svg+xml</dc:format><dc:type
         rdf:resource="http://purl.org/dc/dcmitype/StillImage" /></cc:Work></rdf:RDF></metadata><sodipodi:namedview
   pagecolor="#ffffff"
   bordercolor="#666666"
   borderopacity="1"
   objecttolerance="10"
   gridtolerance="10"
   guidetolerance="10"
   inkscape:pageopacity="0"
   inkscape:pageshadow="2"
   inkscape:window-width="640"
   inkscape:window-height="480"
   id="namedview69"
   showgrid="false"
   inkscape:zoom="1.4193119"
   inkscape:cx="35.905139"
   inkscape:cy="37.786193"
   inkscape:window-x="0"
   inkscape:window-y="0"
   inkscape:window-maximized="0"
   inkscape:current-layer="svg67" />
	<style
   type="text/css"
   id="style2">
	<![CDATA[
		.st1 {fill:#83b9f9;stroke:none;stroke-linecap:butt;stroke-width:34}
		.st2 {fill:#5ea0ef;stroke:none;stroke-linecap:butt;stroke-width:34}
		.st3 {fill:url(#grad0-10);stroke:none;stroke-linecap:butt;stroke-width:34}
		.st4 {fill:#c3f1ff;stroke:none;stroke-linecap:butt;stroke-width:34}
		.st5 {fill:#50e6ff;stroke:none;stroke-linecap:butt;stroke-width:34}
		.st6 {fill:url(#grad0-18);stroke:none;stroke-linecap:butt;stroke-width:34}
		.st7 {fill:url(#grad0-22);stroke:none;stroke-linecap:butt;stroke-width:34}
		.st8 {fill:none;fill-rule:evenodd;font-size:12px;overflow:visible;stroke-linecap:square;stroke-miterlimit:3}
	]]>
	</style>

	<defs
   id="Patterns_And_Gradients">
		<linearGradient
   id="grad0-10"
   x1="0"
   y1="73.96103"
   x2="21.246237"
   y2="73.96103"
   gradientTransform="scale(0.7634293,1.309879)"
   gradientUnits="userSpaceOnUse">
			<stop
   offset="0"
   stop-color="#5ea0ef"
   stop-opacity="1"
   id="stop4" />
			<stop
   offset="1"
   stop-color="#0078d4"
   stop-opacity="1"
   id="stop6" />
		</linearGradient>
		<linearGradient
   id="grad0-18"
   x1="0"
   y1="73.898308"
   x2="21.257686"
   y2="73.898308"
   gradientTransform="scale(0.76301815,1.3105848)"
   gradientUnits="userSpaceOnUse">
			<stop
   offset="0"
   stop-color="#50e6ff"
   stop-opacity="1"
   id="stop9" />
			<stop
   offset="0.5"
   stop-color="#32bedd"
   stop-opacity="1"
   id="stop11" />
			<stop
   offset="1"
   stop-color="#198ab3"
   stop-opacity="1"
   id="stop13" />
		</linearGradient>
		<linearGradient
   id="grad0-22"
   x1="0"
   y1="73.966616"
   x2="21.277335"
   y2="73.966616"
   gradientTransform="scale(0.76372345,1.3093745)"
   gradientUnits="userSpaceOnUse">
			<stop
   offset="0"
   stop-color="#32bedd"
   stop-opacity="1"
   id="stop16" />
			<stop
   offset="1"
   stop-color="#198ab3"
   stop-opacity="1"
   id="stop18" />
		</linearGradient>
	</defs>
	<g
   id="g65"
   transform="translate(-34.000611,-34.0024)">
		<title
   id="title22">Page-1</title>
		<g
   id="group944-1"
   transform="translate(34,-34.0157)">
			<title
   id="title24">Storage Account Object Replication</title>
			<g
   id="group945-2">
				<title
   id="title26">Sheet.945</title>
				<g
   id="shape946-3"
   transform="translate(21.3806,-38.0819)">
					<title
   id="title28">Sheet.946</title>
					<path
   d="M 32.48,115.37 16.29,124.71 0,115.37 16.29,106.1 Z"
   class="st1"
   id="path30"
   inkscape:connector-curvature="0"
   style="fill:#83b9f9;stroke:none;stroke-width:34;stroke-linecap:butt" />
				</g>
				<g
   id="shape947-5"
   transform="translate(21.3806,-19.5906)">
					<title
   id="title33">Sheet.947</title>
					<path
   d="m 16.25,106.22 v 18.49 L 0,115.4 V 96.88 Z"
   class="st2"
   id="path35"
   inkscape:connector-curvature="0"
   style="fill:#5ea0ef;stroke:none;stroke-width:34;stroke-linecap:butt" />
				</g>
				<g
   id="shape948-7"
   transform="translate(37.6339,-19.5906)">
					<title
   id="title38">Sheet.948</title>
					<path
   d="m 0,106.16 v 18.55 L 16.22,115.4 V 96.88 Z"
   class="st3"
   id="path40"
   inkscape:connector-curvature="0"
   style="fill:url(#grad0-10);stroke:none;stroke-width:34;stroke-linecap:butt" />
				</g>
				<g
   id="shape949-11"
   transform="translate(20.7666,-23.1339)">
					<title
   id="title43">Sheet.949</title>
					<path
   d="m 22.14,110.95 -5.79,-5.48 c -0.64,-0.63 -1.16,-0.4 -1.16,0.55 v 2.47 a 0.707223,0.692913 0 0 1 -0.06108,0.26772 0.64293,0.629921 0 0 1 -0.392187,0.35905 0.716867,0.702362 0 0 1 -0.273245,0.0409 C 10.75,109.16 0.39,110.1 0,123.99 a 0.729726,0.714961 -180 0 0 0.726511,0.71496 L 4.43,124.71 a 0.771516,0.755906 -180 0 0 0.292533,-0.063 0.700794,0.686614 -180 0 0 0.241099,-0.16693 0.842239,0.825197 -180 0 0 0.154303,-0.25197 0.713653,0.699213 -180 0 0 0.035361,-0.28976 A 8.67956,8.50394 0 0 1 14.6,113.67 a 0.726511,0.711811 0 0 1 0.726511,0.71181 L 15.32,116.66 c 0,1.14 0.37,1.33 1.17,0.56 l 5.65,-5.09 a 0.678291,0.664567 -180 0 0 0.23467,-0.25512 0.736155,0.72126 -180 0 0 0,-0.66142 A 0.710438,0.696063 -180 0 0 22.14,110.9552 Z"
   class="st4"
   id="path45"
   inkscape:connector-curvature="0"
   style="fill:#c3f1ff;stroke:none;stroke-width:34;stroke-linecap:butt" />
				</g>
				<g
   id="shape950-13"
   transform="translate(0,-18.5197)">
					<title
   id="title48">Sheet.950</title>
					<path
   d="M 32.48,115.37 16.29,124.71 0,115.37 16.29,106.1 Z"
   class="st5"
   id="path50"
   inkscape:connector-curvature="0"
   style="fill:#50e6ff;stroke:none;stroke-width:34;stroke-linecap:butt" />
				</g>
				<g
   id="shape951-15">
					<title
   id="title53">Sheet.951</title>
					<path
   d="m 16.22,106.19 v 18.52 L 0,115.37 V 96.85 Z"
   class="st6"
   id="path55"
   inkscape:connector-curvature="0"
   style="fill:url(#grad0-18);stroke:none;stroke-width:34;stroke-linecap:butt" />
				</g>
				<g
   id="shape952-19"
   transform="translate(16.2243)">
					<title
   id="title58">Sheet.952</title>
					<path
   d="m 0,106.13 v 18.58 l 16.25,-9.34 V 96.85 Z"
   class="st7"
   id="path60"
   inkscape:connector-curvature="0"
   style="fill:url(#grad0-22);stroke:none;stroke-width:34;stroke-linecap:butt" />
				</g>
			</g>
		</g>
	</g>
</svg>

<?xml version="1.0" encoding="UTF-8" standalone="no"?>
<!DOCTYPE svg PUBLIC "-//W3C//DTD SVG 1.1//EN" "http://www.w3.org/Graphics/SVG/1.1/DTD/svg11.dtd">
<!-- Generated by Microsoft Visio, SVG Export Storage Account Object Replication.svg Page-1 -->
<svg xmlns="http://www.w3.org/2000/svg" xmlns:xlink="http://www.w3.org/1999/xlink" xmlns:ev="http://www.w3.org/2001/xml-events"
		width="1.69248in" height="1.73206in" viewBox="0 0 121.858 124.709" xml:space="preserve" color-interpolation-filters="sRGB"
		class="st8">
	<style type="text/css">
	<![CDATA[
		.st1 {fill:#83b9f9;stroke:none;stroke-linecap:butt;stroke-width:34}
		.st2 {fill:#5ea0ef;stroke:none;stroke-linecap:butt;stroke-width:34}
		.st3 {fill:url(#grad0-10);stroke:none;stroke-linecap:butt;stroke-width:34}
		.st4 {fill:#c3f1ff;stroke:none;stroke-linecap:butt;stroke-width:34}
		.st5 {fill:#50e6ff;stroke:none;stroke-linecap:butt;stroke-width:34}
		.st6 {fill:url(#grad0-18);stroke:none;stroke-linecap:butt;stroke-width:34}
		.st7 {fill:url(#grad0-22);stroke:none;stroke-linecap:butt;stroke-width:34}
		.st8 {fill:none;fill-rule:evenodd;font-size:12px;overflow:visible;stroke-linecap:square;stroke-miterlimit:3}
	]]>
	</style>

	<defs id="Patterns_And_Gradients">
		<linearGradient id="grad0-10" x1="0" y1="0" x2="1" y2="0" gradientTransform="rotate(90 0.5 0.5)">
			<stop offset="0" stop-color="#5ea0ef" stop-opacity="1"/>
			<stop offset="1" stop-color="#0078d4" stop-opacity="1"/>
		</linearGradient>
		<linearGradient id="grad0-18" x1="0" y1="0" x2="1" y2="0" gradientTransform="rotate(90 0.5 0.5)">
			<stop offset="0" stop-color="#50e6ff" stop-opacity="1"/>
			<stop offset="0.5" stop-color="#32bedd" stop-opacity="1"/>
			<stop offset="1" stop-color="#198ab3" stop-opacity="1"/>
		</linearGradient>
		<linearGradient id="grad0-22" x1="0" y1="0" x2="1" y2="0" gradientTransform="rotate(90 0.5 0.5)">
			<stop offset="0" stop-color="#32bedd" stop-opacity="1"/>
			<stop offset="1" stop-color="#198ab3" stop-opacity="1"/>
		</linearGradient>
	</defs>
	<g>
		<title>Page-1</title>
		<g id="group929-1" transform="translate(34,-34.0157)">
			<title>Storage Account Object Replication</title>
			<g id="group930-2">
				<title>Sheet.930</title>
				<g id="shape931-3" transform="translate(21.3806,-38.0819)">
					<title>Sheet.931</title>
					<path d="M32.48 115.37 L16.29 124.71 L0 115.37 L16.29 106.1 L32.48 115.37 Z" class="st1"/>
				</g>
				<g id="shape932-5" transform="translate(21.3806,-19.5906)">
					<title>Sheet.932</title>
					<path d="M16.25 106.22 L16.25 124.71 L0 115.4 L0 96.88 L16.25 106.22 Z" class="st2"/>
				</g>
				<g id="shape933-7" transform="translate(37.6339,-19.5906)">
					<title>Sheet.933</title>
					<path d="M0 106.16 L0 124.71 L16.22 115.4 L16.22 96.88 L0 106.16 Z" class="st3"/>
				</g>
				<g id="shape934-11" transform="translate(20.7666,-23.1339)">
					<title>Sheet.934</title>
					<path d="M22.14 110.95 L16.35 105.47 C15.71 104.84 15.19 105.07 15.19 106.02 L15.19 108.49 a0.707223 0.692913
								 0 0 1 -0.0610784 0.267717 a0.64293 0.629921 0 0 1 -0.392187 0.359055 a0.716867 0.702362 0 0 1 -0.273245
								 0.0409449 C10.75 109.16 0.39 110.1 0 123.99 a0.729726 0.714961 -180 0 0 0.726511 0.714961 L4.43
								 124.71 a0.771516 0.755906 -180 0 0 0.292533 -0.0629921 a0.700794 0.686614 -180 0 0 0.241099 -0.166929
								 a0.842239 0.825197 -180 0 0 0.154303 -0.251969 a0.713653 0.699213 -180 0 0 0.0353612 -0.289764 A8.67956
								 8.50394 0 0 1 14.6 113.67 a0.726511 0.711811 0 0 1 0.726511 0.711811 L15.32 116.66 C15.32 117.8
								 15.69 117.99 16.49 117.22 L22.14 112.13 a0.678291 0.664567 -180 0 0 0.23467 -0.255118 a0.736155
								 0.72126 -180 0 0 6.03961E-14 -0.661417 a0.710438 0.696063 -180 0 0 -0.23467 -0.258268 Z"
							class="st4"/>
				</g>
				<g id="shape935-13" transform="translate(0,-18.5197)">
					<title>Sheet.935</title>
					<path d="M32.48 115.37 L16.29 124.71 L0 115.37 L16.29 106.1 L32.48 115.37 Z" class="st5"/>
				</g>
				<g id="shape936-15">
					<title>Sheet.936</title>
					<path d="M16.22 106.19 L16.22 124.71 L0 115.37 L0 96.85 L16.22 106.19 Z" class="st6"/>
				</g>
				<g id="shape937-19" transform="translate(16.2243,-2.70006E-13)">
					<title>Sheet.937</title>
					<path d="M0 106.13 L0 124.71 L16.25 115.37 L16.25 96.85 L0 106.13 Z" class="st7"/>
				</g>
			</g>
		</g>
	</g>
</svg>
